static/assets/img/icons/theme/communication/send.svg

<svg height="24" viewBox="0 0 24 24" width="24" xmlns="http://www.w3.org/2000/svg"><g fill="none" fill-rule="evenodd"><path d="m0 0h24v24h-24z" opacity="0"/><path d="m3 13.5 16-1.5-16-1.5v-6.7267072c0-.07073936.01501031-.14067359.04403925-.20518233.11331907-.25182017.40932292-.36409749.66114309-.25077842l18.28157156 8.22670715c.1114271.0501423.2006362.1393513.2507784.2507785.1133191.2518201.0010418.547824-.2507784.6611431l-18.28157156 8.2267071c-.06450875.029029-.13444298.0440393-.20518234.0440393-.27614237 0-.5-.2238576-.5-.5z" fill="#000"/></g></svg>

<svg width="24px" height="24px" viewBox="0 0 24 24" version="1.1" xmlns="http://www.w3.org/2000/svg" xmlns:xlink="http://www.w3.org/1999/xlink">
    <title>Icon For Send</title>
    <g stroke="none" stroke-width="1" fill="none" fill-rule="evenodd">
        <rect opacity="0" x="0" y="0" width="24" height="24"></rect>
        <path d="M3,13.5 L19,12 L3,10.5 L3,3.7732928 C3,3.70255344 3.01501031,3.63261921 3.04403925,3.56811047 C3.15735832,3.3162903 3.45336217,3.20401298 3.70518234,3.31733205 L21.9867539,11.5440392 C22.098181,11.5941815 22.1873901,11.6833905 22.2375323,11.7948177 C22.3508514,12.0466378 22.2385741,12.3426417 21.9867539,12.4559608 L3.70518234,20.6826679 C3.64067359,20.7116969 3.57073936,20.7267072 3.5,20.7267072 C3.22385763,20.7267072 3,20.5028496 3,20.2267072 L3,13.5 Z" fill="#000000"></path>
    </g>
</svg>
